X: 17847
T: Horizonto
R: jig
M: 6/8
K: Dminor
|:aba gaf|gef dec|"Dm"AGA def|"C"ede cde|
"Bb"fBf fgf|"C"ede cde|"Bb"fed edc|1 "Am" A=Bc "Dm"d3:|2 "Am"A=B^c"Dm"d3||
|:"Gm"BGB def|BGB def|"Dm"AFA def|AFA def|
BGB def|BGB def|1 "Am"abg afg|efd edc:|2 "Dm"=BGB def|=BGB def||
"Gm7"b2a- agf|"C7"e2c efg|"Fma7"a2g- gfe|"BbMa7"d2B def|
"Em7b5"g2f- fed|"A"^c2A cde|"Dm"f2g- g^g2|"D7"a3 aga|"Gm7"b2c'- c'b2|"C7"e3 efg|
"Fma7"a2b- ba|"Bbma7"d3 def|"Em7b5"g2f- fed|"A7"^c2A cde|"Dm"f2d de^c|d3||

